icons/skript_dark.svg

<svg xmlns="http://www.w3.org/2000/svg" xmlns:xlink="http://www.w3.org/1999/xlink" viewBox="0 0 500 500"><defs><path id="a" d="M365.5 161.5q32.26-.496 64 1a9486 9486 0 0 0-72 89.5 9982 9982 0 0 0 74 89.5 1090 1090 0 0 1-66 1 6724 6724 0 0 1-54.5-76q-.75 37.996-.5 76h-55v-240h55q-.25 65.502.5 131a6181 6181 0 0 1 54.5-72m-144 58q-25.452 2.98-52 2-3.64-18.39-22-22.5-11.596-2.096-22 3-12.906 19.738 10 27a1204 1204 0 0 1 57 16q40.801 18.855 29.5 62.5-6.937 19.438-25.5 28.5-26.88 11.361-56 8-36.595-1.423-59.5-29.5-9.546-14.103-12.5-31 26.982-1.5 54-1 3.207 20.455 24 23.5 11.863 2.25 22-4 12.182-16.6-6-26-30.483-8.5-61-17-38.68-16.971-29.5-58.5 9.57-31.063 41.5-38.5 29.093-5.282 58 1 40.764 14.265 50 56.5"/><mask id="b"><path fill="#fff" d="M228.5-.5h44q135.908 16.3 201.5 136 19.614 39.576 25.5 83v63q-22.952 138.681-150 198.5-37.32 15.204-77 19.5h-44Q92.592 483.199 27 363.5q-43.273-89.237-17-185Q51.75 50.75 179.5 9q24.358-6.623 49-9.5"/><use xlink:href="#a"/></mask></defs><g fill="#fefefe" data-iconColor="Skript Dark" mask="url('#b')"><path d="M228.5-.5h44q135.908 16.3 201.5 136 19.614 39.576 25.5 83v63q-22.952 138.681-150 198.5-37.32 15.204-77 19.5h-44Q92.592 483.199 27 363.5q-43.273-89.237-17-185Q51.75 50.75 179.5 9q24.358-6.623 49-9.5"/><use xlink:href="#a"/></g></svg>

<!--
  - The MIT License (MIT)
  -
  - Copyright (c) 2015-2024 Elior "Mallowigi" Boukhobza
  -
  - Permission is hereby granted, free of charge, to any person obtaining a copy
  - of this software and associated documentation files (the "Software"), to deal
  - in the Software without restriction, including without limitation the rights
  - to use, copy, modify, merge, publish, distribute, sublicense, and/or sell
  - copies of the Software, and to permit persons to whom the Software is
  - furnished to do so, subject to the following conditions:
  -
  - The above copyright notice and this permission notice shall be included in all
  - copies or substantial portions of the Software.
  -
  - THE SOFTWARE IS PROVIDED "AS IS", WITHOUT WARRANTY OF ANY KIND, EXPRESS OR
  - IMPLIED, INCLUDING BUT NOT LIMITED TO THE WARRANTIES OF MERCHANTABILITY,
  - FITNESS FOR A PARTICULAR PURPOSE AND NONINFRINGEMENT. IN NO EVENT SHALL THE
  - AUTHORS OR COPYRIGHT HOLDERS BE LIABLE FOR ANY CLAIM, DAMAGES OR OTHER
  - LIABILITY, WHETHER IN AN ACTION OF CONTRACT, TORT OR OTHERWISE, ARISING FROM,
  - OUT OF OR IN CONNECTION WITH THE SOFTWARE OR THE USE OR OTHER DEALINGS IN THE
  - SOFTWARE.
  -
  -->

<svg  xmlns="http://www.w3.org/2000/svg" version="1.1" viewBox="0 0 500 500" width="16px" height="16px">
  <defs>
    <mask id="mask">
      <path fill="white"
            d="M 228.5,-0.5 C 243.167,-0.5 257.833,-0.5 272.5,-0.5C 363.105,10.3673 430.272,55.7006 474,135.5C 487.076,161.884 495.576,189.551 499.5,218.5C 499.5,239.5 499.5,260.5 499.5,281.5C 484.199,373.954 434.199,440.121 349.5,480C 324.62,490.136 298.953,496.636 272.5,499.5C 257.833,499.5 243.167,499.5 228.5,499.5C 137.895,488.633 70.728,443.299 27,363.5C -1.84878,304.009 -7.51545,242.342 10,178.5C 37.8333,93.3333 94.3333,36.8333 179.5,9C 195.739,4.58466 212.072,1.41799 228.5,-0.5 Z"/>
      <path fill="black"
            d="M 365.5,161.5 C 387.007,161.169 408.34,161.503 429.5,162.5C 405.334,192.17 381.334,222.003 357.5,252C 382.031,282.023 406.698,311.856 431.5,341.5C 409.673,342.497 387.673,342.831 365.5,342.5C 347.196,317.348 329.03,292.014 311,266.5C 310.5,291.831 310.333,317.164 310.5,342.5C 292.167,342.5 273.833,342.5 255.5,342.5C 255.5,262.5 255.5,182.5 255.5,102.5C 273.833,102.5 292.167,102.5 310.5,102.5C 310.333,146.168 310.5,189.835 311,233.5C 329.03,209.316 347.197,185.316 365.5,161.5 Z"/>
      <path fill="black"
            d="M 221.5,219.5 C 204.532,221.486 187.199,222.153 169.5,221.5C 167.073,209.24 159.74,201.74 147.5,199C 139.769,197.603 132.436,198.603 125.5,202C 116.896,215.159 120.23,224.159 135.5,229C 154.638,233.868 173.638,239.201 192.5,245C 219.701,257.57 229.534,278.403 222,307.5C 217.375,320.459 208.875,329.959 196.5,336C 178.58,343.574 159.913,346.241 140.5,344C 116.103,343.051 96.2696,333.218 81,314.5C 74.6358,305.098 70.4691,294.764 68.5,283.5C 86.4877,282.5 104.488,282.167 122.5,282.5C 124.638,296.137 132.638,303.97 146.5,306C 154.409,307.5 161.742,306.167 168.5,302C 176.621,290.933 174.621,282.266 162.5,276C 142.178,270.334 121.845,264.667 101.5,259C 75.7141,247.686 65.8808,228.186 72,200.5C 78.3803,179.791 92.2136,166.958 113.5,162C 132.895,158.478 152.229,158.812 171.5,163C 198.676,172.51 215.343,191.343 221.5,219.5 Z"/>
    </mask>
  </defs>
  <g mask="url('#mask')" fill="#fefefe" data-iconColor="Skript Dark">
    <path
        d="M 228.5,-0.5 C 243.167,-0.5 257.833,-0.5 272.5,-0.5C 363.105,10.3673 430.272,55.7006 474,135.5C 487.076,161.884 495.576,189.551 499.5,218.5C 499.5,239.5 499.5,260.5 499.5,281.5C 484.199,373.954 434.199,440.121 349.5,480C 324.62,490.136 298.953,496.636 272.5,499.5C 257.833,499.5 243.167,499.5 228.5,499.5C 137.895,488.633 70.728,443.299 27,363.5C -1.84878,304.009 -7.51545,242.342 10,178.5C 37.8333,93.3333 94.3333,36.8333 179.5,9C 195.739,4.58466 212.072,1.41799 228.5,-0.5 Z"/>
    <path
        d="M 365.5,161.5 C 387.007,161.169 408.34,161.503 429.5,162.5C 405.334,192.17 381.334,222.003 357.5,252C 382.031,282.023 406.698,311.856 431.5,341.5C 409.673,342.497 387.673,342.831 365.5,342.5C 347.196,317.348 329.03,292.014 311,266.5C 310.5,291.831 310.333,317.164 310.5,342.5C 292.167,342.5 273.833,342.5 255.5,342.5C 255.5,262.5 255.5,182.5 255.5,102.5C 273.833,102.5 292.167,102.5 310.5,102.5C 310.333,146.168 310.5,189.835 311,233.5C 329.03,209.316 347.197,185.316 365.5,161.5 Z"/>
    <path
        d="M 221.5,219.5 C 204.532,221.486 187.199,222.153 169.5,221.5C 167.073,209.24 159.74,201.74 147.5,199C 139.769,197.603 132.436,198.603 125.5,202C 116.896,215.159 120.23,224.159 135.5,229C 154.638,233.868 173.638,239.201 192.5,245C 219.701,257.57 229.534,278.403 222,307.5C 217.375,320.459 208.875,329.959 196.5,336C 178.58,343.574 159.913,346.241 140.5,344C 116.103,343.051 96.2696,333.218 81,314.5C 74.6358,305.098 70.4691,294.764 68.5,283.5C 86.4877,282.5 104.488,282.167 122.5,282.5C 124.638,296.137 132.638,303.97 146.5,306C 154.409,307.5 161.742,306.167 168.5,302C 176.621,290.933 174.621,282.266 162.5,276C 142.178,270.334 121.845,264.667 101.5,259C 75.7141,247.686 65.8808,228.186 72,200.5C 78.3803,179.791 92.2136,166.958 113.5,162C 132.895,158.478 152.229,158.812 171.5,163C 198.676,172.51 215.343,191.343 221.5,219.5 Z"/>
  </g>
</svg>
